X:567
T:Reel 567
M:4/4
K:Gmaj
L:1/8
G>B (3BAB cece|d>B (3BAB g2fg|e>A (3AAA eA (3AGA ||G>g (3gfg d>G (3BAG :||2G2BG A2fg|afge ddeg| (3gfe dB gfge|d>B (3BBB gBfg|a>A (3AAA eAFA||ef (3gee e2ef:||2 (3ffe df g2ge|
